TGeo/prim2_ctub_z.svg

<svg viewBox="-600 -400 1200 800" width="1200" height="800" xmlns="http://www.w3.org/2000/svg"><path style="fill:rgb(150,0,150)" d="M-16,-255l2,294l13,-1ZM-2,-257l1,295l12,-1Z"/><path style="fill:rgb(148,0,148)" d="M-31,-253l5,296l12,-4Z"/><path style="fill:rgb(149,0,149)" d="M13,-258l-2,295l12,1Z"/><path style="fill:rgb(145,0,145)" d="M-45,-250l7,297l12,-4Z"/><path style="fill:rgb(147,0,147)" d="M28,-258l-5,296l13,2Z"/><path style="fill:rgb(140,0,140)" d="M-59,-247l10,300l11,-6Z"/><path style="fill:rgb(143,0,143)" d="M43,-258l-7,298l11,3Z"/><path style="fill:rgb(134,0,134)" d="M-72,-243l12,302l11,-6Z"/><path style="fill:rgb(138,0,138)" d="M57,-257l-10,300l12,4Z"/><path style="fill:rgb(127,0,127)" d="M-85,-238l15,305l10,-8Z"/><path style="fill:rgb(132,0,132)" d="M71,-255l-12,302l11,6Z"/><path style="fill:rgb(119,0,119)" d="M-97,-233l17,309l10,-9Z"/><path style="fill:rgb(124,0,124)" d="M84,-253l-14,306l10,7Z"/><path style="fill:rgb(109,0,109)" d="M-108,-228l20,314l8,-10Z"/><path style="fill:rgb(115,0,115)" d="M97,-250l-17,310l9,8Z"/><path style="fill:rgb(99,0,99)" d="M-117,-222l21,318l8,-10Z"/><path style="fill:rgb(105,0,105)" d="M109,-247l-20,315l9,9Z"/><path style="fill:rgb(87,0,87)" d="M-126,-216l24,323l6,-11Z"/><path style="fill:rgb(95,0,95)" d="M120,-243l-22,320l7,10Z"/><path style="fill:rgb(75,0,75)" d="M-133,-209l25,328l6,-12Z"/><path style="fill:rgb(83,0,83)" d="M130,-238l-25,325l7,10Z"/><path style="fill:rgb(62,0,62)" d="M-140,-202l28,333l4,-12Z"/><path style="fill:rgb(70,0,70)" d="M138,-233l-26,330l5,12Z"/><path style="fill:rgb(48,0,48)" d="M-144,-195l29,339l3,-13Z"/><path style="fill:rgb(57,0,57)" d="M146,-227l-29,336l5,12Z"/><path style="fill:rgb(136,0,136)" d="M122,121l58,-20l44,-336Z"/><path style="fill:rgb(34,0,34)" d="M-147,-188l30,345l2,-13Z"/><path style="fill:rgb(20,0,20)" d="M-149,-181l31,351l1,-13Z"/><path style="fill:rgb(6,0,6)" d="M-149,-174l32,357l-1,-13Z"/><path style="fill:rgb(0,0,0)" d="M-226,-164l49,359l3,19ZM-224,-153l50,367l4,18Z"/><path style="fill:rgb(14,0,14)" d="M-220,-143l50,375l7,19Z"/><path style="fill:rgb(159,0,159)" d="M-16,-255l15,293l-1,-295Z"/><path style="fill:rgb(157,0,157)" d="M-31,-253l17,292l-2,-294Z"/><path style="fill:rgb(159,0,159)" d="M-2,-257l13,294l2,-295Z"/><path style="fill:rgb(153,0,153)" d="M-45,-250l19,293l-5,-296Z"/><path style="fill:rgb(158,0,158)" d="M13,-258l10,296l5,-296Z"/><path style="fill:rgb(148,0,148)" d="M-59,-247l21,294l-7,-297Z"/><path style="fill:rgb(156,0,156)" d="M28,-258l8,298l7,-298Z"/><path style="fill:rgb(142,0,142)" d="M-72,-243l23,296l-10,-300Z"/><path style="fill:rgb(152,0,152)" d="M43,-258l4,301l10,-300Z"/><path style="fill:rgb(28,0,28)" d="M-213,-132l50,383l9,17Z"/><path style="fill:rgb(135,0,135)" d="M-85,-238l25,297l-12,-302Z"/><path style="fill:rgb(147,0,147)" d="M57,-257l2,304l12,-302Z"/><path style="fill:rgb(126,0,126)" d="M-97,-233l27,300l-15,-305Z"/><path style="fill:rgb(140,0,140)" d="M71,-255l-1,308l14,-306Z"/><path style="fill:rgb(41,0,41)" d="M-203,-122l49,390l10,16Z"/><path style="fill:rgb(116,0,116)" d="M-108,-228l28,304l-17,-309Z"/><path style="fill:rgb(132,0,132)" d="M84,-253l-4,313l17,-310Z"/><path style="fill:rgb(105,0,105)" d="M-117,-222l29,308l-20,-314Z"/><path style="fill:rgb(123,0,123)" d="M97,-250l-8,318l20,-315Z"/><path style="fill:rgb(54,0,54)" d="M-191,-113l47,397l12,15Z"/><path style="fill:rgb(93,0,93)" d="M-126,-216l30,312l-21,-318Z"/><path style="fill:rgb(112,0,112)" d="M109,-247l-11,324l22,-320Z"/><path style="fill:rgb(66,0,66)" d="M-176,-105l44,404l14,13Z"/><path style="fill:rgb(80,0,80)" d="M-133,-209l31,316l-24,-323Z"/><path style="fill:rgb(101,0,101)" d="M120,-243l-15,330l25,-325Z"/><path style="fill:rgb(78,0,78)" d="M-159,-97l41,409l15,12Z"/><path style="fill:rgb(99,0,99)" d="M-2,-257l-2,-28l-22,2Z"/><path style="fill:rgb(100,0,100)" d="M13,-258l4,-29l-21,2ZM-16,-255l-10,-28l-21,3Z"/><path style="fill:rgb(66,0,66)" d="M-140,-202l32,321l-25,-328Z"/><path style="fill:rgb(88,0,88)" d="M130,-238l-18,335l26,-330Z"/><path style="fill:rgb(100,0,100)" d="M28,-258l11,-29h-22ZM-31,-253l-16,-27l-21,4Z"/><path style="fill:rgb(88,0,88)" d="M-139,-90l36,414l17,10Z"/><path style="fill:rgb(100,0,100)" d="M43,-258l17,-29h-21ZM-45,-250l-23,-26l-20,5Z"/><path style="fill:rgb(52,0,52)" d="M-144,-195l32,326l-28,-333Z"/><path style="fill:rgb(75,0,75)" d="M138,-233l-21,342l29,-336Z"/><path style="fill:rgb(100,0,100)" d="M57,-257l24,-29l-21,-1ZM-59,-247l-29,-24l-19,6Z"/><path style="fill:rgb(97,0,97)" d="M-117,-85l31,419l17,9Z"/><path style="fill:rgb(101,0,101)" d="M-2,-257l-24,-26l10,28ZM13,-258l-17,-27l2,28ZM71,-255l30,-29l-20,-2Z"/><path style="fill:rgb(100,0,100)" d="M-72,-243l-35,-22l-19,6Z"/><path style="fill:rgb(101,0,101)" d="M-16,-255l-31,-25l16,27Z"/><path style="fill:rgb(37,0,37)" d="M-147,-188l32,332l-29,-339Z"/><path style="fill:rgb(105,0,105)" d="M-94,-81l25,424l19,6Z"/><path style="fill:rgb(101,0,101)" d="M28,-258l-11,-29l-4,29Z"/><path style="fill:rgb(61,0,61)" d="M146,-227l-24,348l30,-342Z"/><path style="fill:rgb(146,0,146)" d="M122,121l102,-356l-72,14Z"/><path style="fill:rgb(101,0,101)" d="M-31,-253l-37,-23l23,26ZM43,-258l-4,-29l-11,29Z"/><path style="fill:rgb(111,0,111)" d="M-69,-78l19,427l19,4Z"/><path style="fill:rgb(101,0,101)" d="M-45,-250l-43,-21l29,24ZM84,-253l37,-27l-20,-4ZM57,-257l3,-30l-17,29ZM-85,-238l-41,-21l-17,8Z"/><path style="fill:rgb(116,0,116)" d="M-43,-76l12,429l19,2Z"/><path style="fill:rgb(22,0,22)" d="M-149,-181l32,338l-30,-345Z"/><path style="fill:rgb(116,0,116)" d="M91,-90l-25,431l18,-9Z"/><path style="fill:rgb(101,0,101)" d="M-59,-247l-48,-18l35,22Z"/><path style="fill:rgb(119,0,119)" d="M-16,-76l4,431h20Z"/><path style="fill:rgb(102,0,102)" d="M71,-255l10,-31l-24,29Z"/><path style="fill:rgb(119,0,119)" d="M65,-84l-18,431l19,-6Z"/><path style="fill:rgb(121,0,121)" d="M11,-77l-3,432l20,-3ZM38,-80l-10,432l19,-5Z"/><path style="fill:rgb(102,0,102)" d="M97,-250l43,-26l-19,-4Z"/><path style="fill:rgb(101,0,101)" d="M-97,-233l-46,-18l-17,7Z"/><path style="fill:rgb(102,0,102)" d="M-72,-243l-54,-16l41,21ZM84,-253l17,-31l-30,29Z"/><path style="fill:rgb(6,0,6)" d="M-149,-174l31,344l-31,-351Z"/><path style="fill:rgb(102,0,102)" d="M-85,-238l-58,-13l46,18Z"/><path style="fill:rgb(103,0,103)" d="M109,-247l48,-25l-17,-4ZM97,-250l24,-30l-37,27Z"/><path style="fill:rgb(102,0,102)" d="M-108,-228l-52,-16l-14,9Z"/><path style="fill:rgb(103,0,103)" d="M-97,-233l-63,-11l52,16Z"/><path style="fill:rgb(0,0,0)" d="M-226,-164l52,378l-50,-367Z"/><path style="fill:rgb(103,0,103)" d="M109,-247l31,-29l-43,26ZM120,-243l54,-23l-17,-6ZM-117,-222l-57,-13l-14,9ZM-108,-228l-66,-7l57,13Z"/><path style="fill:rgb(104,0,104)" d="M120,-243l37,-29l-48,25Z"/><path style="fill:rgb(0,0,0)" d="M-224,-153l54,385l-50,-375Z"/><path style="fill:rgb(104,0,104)" d="M130,-238l59,-21l-15,-7ZM-126,-216l-62,-10l-11,9ZM-117,-222l-71,-4l62,10Z"/><path style="fill:rgb(105,0,105)" d="M130,-238l44,-28l-54,23Z"/><path style="fill:rgb(15,0,15)" d="M-220,-143l57,394l-50,-383Z"/><path style="fill:rgb(105,0,105)" d="M138,-233l64,-19l-13,-7ZM-126,-216l-73,-1l66,8Z"/><path style="fill:rgb(104,0,104)" d="M-133,-209l-66,-8l-10,10Z"/><path style="fill:rgb(105,0,105)" d="M138,-233l51,-26l-59,21ZM-133,-209l-76,2l69,5Z"/><path style="fill:rgb(30,0,30)" d="M-213,-132l59,400l-49,-390Z"/><path style="fill:rgb(106,0,106)" d="M146,-227l68,-17l-12,-8Z"/><path style="fill:rgb(105,0,105)" d="M-140,-202l-69,-5l-7,11Z"/><path style="fill:rgb(106,0,106)" d="M146,-227l56,-25l-64,19ZM-140,-202l-76,6l72,1Z"/><path style="fill:rgb(45,0,45)" d="M-203,-122l59,406l-47,-397Z"/><path style="fill:rgb(107,0,107)" d="M152,-221l62,-23l-68,17ZM152,-221l72,-14l-10,-9Z"/><path style="fill:rgb(106,0,106)" d="M-144,-195l-72,-1l-6,10Z"/><path style="fill:rgb(107,0,107)" d="M-144,-195l-78,9l75,-2Z"/><path style="fill:rgb(60,0,60)" d="M-191,-113l59,412l-44,-404Z"/><path style="fill:rgb(107,0,107)" d="M-147,-188l-75,2l-3,11Z"/><path style="fill:rgb(108,0,108)" d="M-147,-188l-78,13l76,-6Z"/><path style="fill:rgb(73,0,73)" d="M-176,-105l58,417l-41,-409Z"/><path style="fill:rgb(108,0,108)" d="M-149,-181l-76,6l-1,11Z"/><path style="fill:rgb(86,0,86)" d="M-159,-97l56,421l-36,-414Z"/><path style="fill:rgb(109,0,109)" d="M-149,-181l-77,17l77,-10Z"/><path style="fill:rgb(97,0,97)" d="M-139,-90l53,424l-31,-419Z"/><path style="fill:rgb(109,0,109)" d="M-149,-174l-77,10l2,11Z"/><path style="fill:rgb(110,0,110)" d="M-149,-174l-75,21l77,-14Z"/><path style="fill:rgb(108,0,108)" d="M-117,-85l48,428l-25,-424Z"/><path style="fill:rgb(116,0,116)" d="M-94,-81l44,430l-19,-427Z"/><path style="fill:rgb(111,0,111)" d="M-147,-167l-77,14l4,10ZM-147,-167l-73,24l77,-17Z"/><path style="fill:rgb(123,0,123)" d="M-69,-78l38,431l-12,-429Z"/><path style="fill:rgb(129,0,129)" d="M91,-90l-7,422l31,-428ZM-43,-76l31,431l-4,-431Z"/><path style="fill:rgb(132,0,132)" d="M65,-84l1,425l25,-431Z"/><path style="fill:rgb(133,0,133)" d="M-16,-76l24,431l3,-432Z"/><path style="fill:rgb(134,0,134)" d="M38,-80l9,427l18,-431ZM11,-77l17,429l10,-432Z"/><path style="fill:rgb(112,0,112)" d="M-143,-160l-70,28l75,-21ZM-143,-160l-77,17l7,11Z"/><path style="fill:rgb(113,0,113)" d="M-138,-153l-65,31l72,-25ZM-138,-153l-75,21l10,10Z"/><path style="fill:rgb(114,0,114)" d="M-131,-147l-60,34l68,-28ZM-131,-147l-72,25l12,9Z"/><path style="fill:rgb(115,0,115)" d="M-123,-141l-53,36l64,-31ZM-123,-141l-68,28l15,8Z"/><path style="fill:rgb(116,0,116)" d="M-112,-136l-47,39l58,-34ZM-112,-136l-64,31l17,8Z"/><path style="fill:rgb(117,0,117)" d="M-101,-131l-38,41l51,-37ZM-88,-127l-29,42l43,-39ZM-101,-131l-58,34l20,7Z"/><path style="fill:rgb(118,0,118)" d="M-74,-124l-20,43l35,-40ZM-88,-127l-51,37l22,5Z"/><path style="fill:rgb(119,0,119)" d="M-59,-121l-10,43l26,-41ZM60,-127l55,31l-39,-35ZM-43,-119v43l17,-43ZM43,-124l48,34l-31,-37ZM-74,-124l-43,39l23,4ZM-26,-119l10,43l7,-43Z"/><path style="fill:rgb(120,0,120)" d="M26,-121l39,37l-22,-40ZM-9,-119l20,42l-2,-42ZM9,-119l29,39l-12,-41ZM-59,-121l-35,40l25,3ZM-43,-119l-26,41l26,2Z"/><path style="fill:rgb(121,0,121)" d="M60,-127l31,37l24,-6ZM-26,-119l-17,43h27ZM43,-124l22,40l26,-6ZM-9,-119l-7,43l27,-1ZM26,-121l12,41l27,-4ZM9,-119l2,42l27,-3Z"/></svg>

<svg xmlns="http://www.w3.org/2000/svg" viewBox="-600 -400 1200 800" width="1200" height="800" style="background:rgb(255,255,255)"><path style="fill:rgb(150,0,150)" d="M-16,-255L-14,39L-1,38zM-2,-257L-1,38L11,37z"/><path style="fill:rgb(148,0,148)" d="M-31,-253L-26,43L-14,39z"/><path style="fill:rgb(149,0,149)" d="M13,-258L11,37L23,38z"/><path style="fill:rgb(145,0,145)" d="M-45,-250L-38,47L-26,43z"/><path style="fill:rgb(147,0,147)" d="M28,-258L23,38L36,40z"/><path style="fill:rgb(140,0,140)" d="M-59,-247L-49,53L-38,47z"/><path style="fill:rgb(143,0,143)" d="M43,-258L36,40L47,43z"/><path style="fill:rgb(134,0,134)" d="M-72,-243L-60,59L-49,53z"/><path style="fill:rgb(138,0,138)" d="M57,-257L47,43L59,47z"/><path style="fill:rgb(127,0,127)" d="M-85,-238L-70,67L-60,59z"/><path style="fill:rgb(132,0,132)" d="M71,-255L59,47L70,53z"/><path style="fill:rgb(119,0,119)" d="M-97,-233L-80,76L-70,67z"/><path style="fill:rgb(124,0,124)" d="M84,-253L70,53L80,60z"/><path style="fill:rgb(109,0,109)" d="M-108,-228L-88,86L-80,76z"/><path style="fill:rgb(115,0,115)" d="M97,-250L80,60L89,68z"/><path style="fill:rgb(99,0,99)" d="M-117,-222L-96,96L-88,86z"/><path style="fill:rgb(105,0,105)" d="M109,-247L89,68L98,77z"/><path style="fill:rgb(87,0,87)" d="M-126,-216L-102,107L-96,96z"/><path style="fill:rgb(95,0,95)" d="M120,-243L98,77L105,87z"/><path style="fill:rgb(75,0,75)" d="M-133,-209L-108,119L-102,107z"/><path style="fill:rgb(83,0,83)" d="M130,-238L105,87L112,97z"/><path style="fill:rgb(62,0,62)" d="M-140,-202L-112,131L-108,119z"/><path style="fill:rgb(70,0,70)" d="M138,-233L112,97L117,109z"/><path style="fill:rgb(48,0,48)" d="M-144,-195L-115,144L-112,131z"/><path style="fill:rgb(57,0,57)" d="M146,-227L117,109L122,121z"/><path style="fill:rgb(136,0,136)" d="M122,121L180,101L224,-235z"/><path style="fill:rgb(34,0,34)" d="M-147,-188L-117,157L-115,144z"/><path style="fill:rgb(20,0,20)" d="M-149,-181L-118,170L-117,157z"/><path style="fill:rgb(6,0,6)" d="M-149,-174L-117,183L-118,170z"/><path style="fill:rgb(0,0,0)" d="M-226,-164L-177,195L-174,214zM-224,-153L-174,214L-170,232z"/><path style="fill:rgb(14,0,14)" d="M-220,-143L-170,232L-163,251z"/><path style="fill:rgb(159,0,159)" d="M-16,-255L-1,38L-2,-257z"/><path style="fill:rgb(157,0,157)" d="M-31,-253L-14,39L-16,-255z"/><path style="fill:rgb(159,0,159)" d="M-2,-257L11,37L13,-258z"/><path style="fill:rgb(153,0,153)" d="M-45,-250L-26,43L-31,-253z"/><path style="fill:rgb(158,0,158)" d="M13,-258L23,38L28,-258z"/><path style="fill:rgb(148,0,148)" d="M-59,-247L-38,47L-45,-250z"/><path style="fill:rgb(156,0,156)" d="M28,-258L36,40L43,-258z"/><path style="fill:rgb(142,0,142)" d="M-72,-243L-49,53L-59,-247z"/><path style="fill:rgb(152,0,152)" d="M43,-258L47,43L57,-257z"/><path style="fill:rgb(28,0,28)" d="M-213,-132L-163,251L-154,268z"/><path style="fill:rgb(135,0,135)" d="M-85,-238L-60,59L-72,-243z"/><path style="fill:rgb(147,0,147)" d="M57,-257L59,47L71,-255z"/><path style="fill:rgb(126,0,126)" d="M-97,-233L-70,67L-85,-238z"/><path style="fill:rgb(140,0,140)" d="M71,-255L70,53L84,-253z"/><path style="fill:rgb(41,0,41)" d="M-203,-122L-154,268L-144,284z"/><path style="fill:rgb(116,0,116)" d="M-108,-228L-80,76L-97,-233z"/><path style="fill:rgb(132,0,132)" d="M84,-253L80,60L97,-250z"/><path style="fill:rgb(105,0,105)" d="M-117,-222L-88,86L-108,-228z"/><path style="fill:rgb(123,0,123)" d="M97,-250L89,68L109,-247z"/><path style="fill:rgb(54,0,54)" d="M-191,-113L-144,284L-132,299z"/><path style="fill:rgb(93,0,93)" d="M-126,-216L-96,96L-117,-222z"/><path style="fill:rgb(112,0,112)" d="M109,-247L98,77L120,-243z"/><path style="fill:rgb(66,0,66)" d="M-176,-105L-132,299L-118,312z"/><path style="fill:rgb(80,0,80)" d="M-133,-209L-102,107L-126,-216z"/><path style="fill:rgb(101,0,101)" d="M120,-243L105,87L130,-238z"/><path style="fill:rgb(78,0,78)" d="M-159,-97L-118,312L-103,324z"/><path style="fill:rgb(99,0,99)" d="M-2,-257L-4,-285L-26,-283z"/><path style="fill:rgb(100,0,100)" d="M13,-258L17,-287L-4,-285zM-16,-255L-26,-283L-47,-280z"/><path style="fill:rgb(66,0,66)" d="M-140,-202L-108,119L-133,-209z"/><path style="fill:rgb(88,0,88)" d="M130,-238L112,97L138,-233z"/><path style="fill:rgb(100,0,100)" d="M28,-258L39,-287L17,-287zM-31,-253L-47,-280L-68,-276z"/><path style="fill:rgb(88,0,88)" d="M-139,-90L-103,324L-86,334z"/><path style="fill:rgb(100,0,100)" d="M43,-258L60,-287L39,-287zM-45,-250L-68,-276L-88,-271z"/><path style="fill:rgb(52,0,52)" d="M-144,-195L-112,131L-140,-202z"/><path style="fill:rgb(75,0,75)" d="M138,-233L117,109L146,-227z"/><path style="fill:rgb(100,0,100)" d="M57,-257L81,-286L60,-287zM-59,-247L-88,-271L-107,-265z"/><path style="fill:rgb(97,0,97)" d="M-117,-85L-86,334L-69,343z"/><path style="fill:rgb(101,0,101)" d="M-2,-257L-26,-283L-16,-255zM13,-258L-4,-285L-2,-257zM71,-255L101,-284L81,-286z"/><path style="fill:rgb(100,0,100)" d="M-72,-243L-107,-265L-126,-259z"/><path style="fill:rgb(101,0,101)" d="M-16,-255L-47,-280L-31,-253z"/><path style="fill:rgb(37,0,37)" d="M-147,-188L-115,144L-144,-195z"/><path style="fill:rgb(105,0,105)" d="M-94,-81L-69,343L-50,349z"/><path style="fill:rgb(101,0,101)" d="M28,-258L17,-287L13,-258z"/><path style="fill:rgb(61,0,61)" d="M146,-227L122,121L152,-221z"/><path style="fill:rgb(146,0,146)" d="M122,121L224,-235L152,-221z"/><path style="fill:rgb(101,0,101)" d="M-31,-253L-68,-276L-45,-250zM43,-258L39,-287L28,-258z"/><path style="fill:rgb(111,0,111)" d="M-69,-78L-50,349L-31,353z"/><path style="fill:rgb(101,0,101)" d="M-45,-250L-88,-271L-59,-247zM84,-253L121,-280L101,-284zM57,-257L60,-287L43,-258zM-85,-238L-126,-259L-143,-251z"/><path style="fill:rgb(116,0,116)" d="M-43,-76L-31,353L-12,355z"/><path style="fill:rgb(22,0,22)" d="M-149,-181L-117,157L-147,-188z"/><path style="fill:rgb(116,0,116)" d="M91,-90L66,341L84,332z"/><path style="fill:rgb(101,0,101)" d="M-59,-247L-107,-265L-72,-243z"/><path style="fill:rgb(119,0,119)" d="M-16,-76L-12,355L8,355z"/><path style="fill:rgb(102,0,102)" d="M71,-255L81,-286L57,-257z"/><path style="fill:rgb(119,0,119)" d="M65,-84L47,347L66,341z"/><path style="fill:rgb(121,0,121)" d="M11,-77L8,355L28,352zM38,-80L28,352L47,347z"/><path style="fill:rgb(102,0,102)" d="M97,-250L140,-276L121,-280z"/><path style="fill:rgb(101,0,101)" d="M-97,-233L-143,-251L-160,-244z"/><path style="fill:rgb(102,0,102)" d="M-72,-243L-126,-259L-85,-238zM84,-253L101,-284L71,-255z"/><path style="fill:rgb(6,0,6)" d="M-149,-174L-118,170L-149,-181z"/><path style="fill:rgb(102,0,102)" d="M-85,-238L-143,-251L-97,-233z"/><path style="fill:rgb(103,0,103)" d="M109,-247L157,-272L140,-276zM97,-250L121,-280L84,-253z"/><path style="fill:rgb(102,0,102)" d="M-108,-228L-160,-244L-174,-235z"/><path style="fill:rgb(103,0,103)" d="M-97,-233L-160,-244L-108,-228z"/><path style="fill:rgb(0,0,0)" d="M-226,-164L-174,214L-224,-153z"/><path style="fill:rgb(103,0,103)" d="M109,-247L140,-276L97,-250zM120,-243L174,-266L157,-272zM-117,-222L-174,-235L-188,-226zM-108,-228L-174,-235L-117,-222z"/><path style="fill:rgb(104,0,104)" d="M120,-243L157,-272L109,-247z"/><path style="fill:rgb(0,0,0)" d="M-224,-153L-170,232L-220,-143z"/><path style="fill:rgb(104,0,104)" d="M130,-238L189,-259L174,-266zM-126,-216L-188,-226L-199,-217zM-117,-222L-188,-226L-126,-216z"/><path style="fill:rgb(105,0,105)" d="M130,-238L174,-266L120,-243z"/><path style="fill:rgb(15,0,15)" d="M-220,-143L-163,251L-213,-132z"/><path style="fill:rgb(105,0,105)" d="M138,-233L202,-252L189,-259zM-126,-216L-199,-217L-133,-209z"/><path style="fill:rgb(104,0,104)" d="M-133,-209L-199,-217L-209,-207z"/><path style="fill:rgb(105,0,105)" d="M138,-233L189,-259L130,-238zM-133,-209L-209,-207L-140,-202z"/><path style="fill:rgb(30,0,30)" d="M-213,-132L-154,268L-203,-122z"/><path style="fill:rgb(106,0,106)" d="M146,-227L214,-244L202,-252z"/><path style="fill:rgb(105,0,105)" d="M-140,-202L-209,-207L-216,-196z"/><path style="fill:rgb(106,0,106)" d="M146,-227L202,-252L138,-233zM-140,-202L-216,-196L-144,-195z"/><path style="fill:rgb(45,0,45)" d="M-203,-122L-144,284L-191,-113z"/><path style="fill:rgb(107,0,107)" d="M152,-221L214,-244L146,-227zM152,-221L224,-235L214,-244z"/><path style="fill:rgb(106,0,106)" d="M-144,-195L-216,-196L-222,-186z"/><path style="fill:rgb(107,0,107)" d="M-144,-195L-222,-186L-147,-188z"/><path style="fill:rgb(60,0,60)" d="M-191,-113L-132,299L-176,-105z"/><path style="fill:rgb(107,0,107)" d="M-147,-188L-222,-186L-225,-175z"/><path style="fill:rgb(108,0,108)" d="M-147,-188L-225,-175L-149,-181z"/><path style="fill:rgb(73,0,73)" d="M-176,-105L-118,312L-159,-97z"/><path style="fill:rgb(108,0,108)" d="M-149,-181L-225,-175L-226,-164z"/><path style="fill:rgb(86,0,86)" d="M-159,-97L-103,324L-139,-90z"/><path style="fill:rgb(109,0,109)" d="M-149,-181L-226,-164L-149,-174z"/><path style="fill:rgb(97,0,97)" d="M-139,-90L-86,334L-117,-85z"/><path style="fill:rgb(109,0,109)" d="M-149,-174L-226,-164L-224,-153z"/><path style="fill:rgb(110,0,110)" d="M-149,-174L-224,-153L-147,-167z"/><path style="fill:rgb(108,0,108)" d="M-117,-85L-69,343L-94,-81z"/><path style="fill:rgb(116,0,116)" d="M-94,-81L-50,349L-69,-78z"/><path style="fill:rgb(111,0,111)" d="M-147,-167L-224,-153L-220,-143zM-147,-167L-220,-143L-143,-160z"/><path style="fill:rgb(123,0,123)" d="M-69,-78L-31,353L-43,-76z"/><path style="fill:rgb(129,0,129)" d="M91,-90L84,332L115,-96zM-43,-76L-12,355L-16,-76z"/><path style="fill:rgb(132,0,132)" d="M65,-84L66,341L91,-90z"/><path style="fill:rgb(133,0,133)" d="M-16,-76L8,355L11,-77z"/><path style="fill:rgb(134,0,134)" d="M38,-80L47,347L65,-84zM11,-77L28,352L38,-80z"/><path style="fill:rgb(112,0,112)" d="M-143,-160L-213,-132L-138,-153zM-143,-160L-220,-143L-213,-132z"/><path style="fill:rgb(113,0,113)" d="M-138,-153L-203,-122L-131,-147zM-138,-153L-213,-132L-203,-122z"/><path style="fill:rgb(114,0,114)" d="M-131,-147L-191,-113L-123,-141zM-131,-147L-203,-122L-191,-113z"/><path style="fill:rgb(115,0,115)" d="M-123,-141L-176,-105L-112,-136zM-123,-141L-191,-113L-176,-105z"/><path style="fill:rgb(116,0,116)" d="M-112,-136L-159,-97L-101,-131zM-112,-136L-176,-105L-159,-97z"/><path style="fill:rgb(117,0,117)" d="M-101,-131L-139,-90L-88,-127zM-88,-127L-117,-85L-74,-124zM-101,-131L-159,-97L-139,-90z"/><path style="fill:rgb(118,0,118)" d="M-74,-124L-94,-81L-59,-121zM-88,-127L-139,-90L-117,-85z"/><path style="fill:rgb(119,0,119)" d="M-59,-121L-69,-78L-43,-119zM60,-127L115,-96L76,-131zM-43,-119L-43,-76L-26,-119zM43,-124L91,-90L60,-127zM-74,-124L-117,-85L-94,-81zM-26,-119L-16,-76L-9,-119z"/><path style="fill:rgb(120,0,120)" d="M26,-121L65,-84L43,-124zM-9,-119L11,-77L9,-119zM9,-119L38,-80L26,-121zM-59,-121L-94,-81L-69,-78zM-43,-119L-69,-78L-43,-76z"/><path style="fill:rgb(121,0,121)" d="M60,-127L91,-90L115,-96zM-26,-119L-43,-76L-16,-76zM43,-124L65,-84L91,-90zM-9,-119L-16,-76L11,-77zM26,-121L38,-80L65,-84zM9,-119L11,-77L38,-80z"/></svg>
